X:168
T:Knebsworth Place
M:6/8
L:1/8
B:Thompson's Compleat Collection of 200 Favourite Country Dances, vol. 1 (London, 1757)
Z:Transcribed and edited by Flynn Titford-Mock, 2007
Z:abc's:AK/Fiddler's Companion
K:G
d|efg f2e|d2c Bcd|cde dcB|ABA A2d|efg f2e|d2c Bcd|cde dcB|"tr"A3 G2:|
|:c|B2G GBG|GBG dBG|c2A ABA|ABA ecA|B2G GBG|GBG dcB|cde dcB|"tr"A3 G2:|

